!!!OTL:
!!!ONR: No. 13
!! From Madeleine Beland,
!! "Chansons de Voyageurs, Coureurs de Bois et Forestiers"
!! Quebec: Les Presses de l'universite/ Laval, 1982
!! ISBN 2-7637-6942-X
**kern
*clefG2
*k[f#]
*M6/8
8g
8f#
8a
=
4dd
8cc
8b
8a
8g
=
8g
8f#
8a
8cc
8b
8a
=
4g
8r
8g
8f#
8a
=
4dd
8cc
8b
8a
8g
=
8g
8f#
8a
8cc
8b
8a
=
4g;
8r
8g
8b
8cc
=
4dd
8ee
4a
8r
=
8a
8cc
8ee
8ee
8cc
8ee
=
4dd
8r
8dd
8ee
8dd
=
4a
8b
8cc
8b
8a
=
8g
8f#
8a
8cc
8b
8a
=
4.g;
==
*-
